X:11
T:Fermoy Lasses
M:C|
R:reel
C:Traditional
K:Em
GE (3EEE BE (3EEE | GE (3EEE BcBA | GE (3EEE BE (3EEE | AFDF AcBA |
GE (3EEE BE (3EEE | GE (3EEE BcBA | G2 GF GBdB | AFDF AcBA :|
|: (3GGG BG dGBG | (3GGG Bd ef g2 | (3GGG BG dGBG | AFDF AcBA |
(3GGG BG dGBG | (3GGG Bd ef g2 | afge fded | AFDF AcBA :|

%%newpage

%%scale .7
%%staffsep 40

